polaris-icons/icons/new-icons/TypeMajor.svg

<svg width="20" height="20" viewBox="0 0 20 20" fill="none" xmlns="http://www.w3.org/2000/svg">
<path fill-rule="evenodd" clip-rule="evenodd" d="M7.07718 12.5L6.09892 15H6.5C6.91421 15 7.25 15.3358 7.25 15.75C7.25 16.1642 6.91421 16.5 6.5 16.5H5.02427C5.00801 16.5005 4.99169 16.5005 4.97533 16.5H4C3.58579 16.5 3.25 16.1642 3.25 15.75C3.25 15.3358 3.58579 15 4 15H4.48817L8.80156 3.9769C8.93221 3.64301 9.27574 3.45552 9.61589 3.50905C10.0567 3.4491 10.4993 3.69076 10.6755 4.12163L15.1258 15H16C16.4142 15 16.75 15.3358 16.75 15.75C16.75 16.1642 16.4142 16.5 16 16.5H12.5C12.0858 16.5 11.75 16.1642 11.75 15.75C11.75 15.3358 12.0858 15 12.5 15H12.9649L11.9422 12.5H7.07718ZM7.66414 11L9.45562 6.42177L11.3285 11H7.66414Z" fill="#4A4A4A"/>
</svg>

<svg viewBox="0 0 20 20" xmlns="http://www.w3.org/2000/svg"><path fill-rule="evenodd" d="m7.077 12.5-.978 2.5h.401a.75.75 0 0 1 0 1.5h-2.5a.75.75 0 0 1 0-1.5h.488l4.314-11.023a.75.75 0 0 1 .814-.468 1 1 0 0 1 1.06.613l4.45 10.878h.874a.75.75 0 0 1 0 1.5h-3.5a.75.75 0 0 1 0-1.5h.465l-1.023-2.5h-4.865Zm.587-1.5 1.792-4.578 1.873 4.578h-3.665Z" fill="#5C5F62"/></svg>
